!!!COM: Bach, Johann Sebastian
!!!CDT: 1685/3//-1750/7/28/
!!!OTL@@DE: Der Tag, der ist so freudenreich
!!!OTL@EN: This day is so joyful
!!!AGN: 4-Part Chorale
!!!SCT: Erk 158
!!!SCT: BWV 294
!!!ONB1: Text by Georg Niege; 16th Century secular melody, first appears 
!!!ONB2: in sacred use in Neu Catechismus-Gesangbüchlein, Hamburg, 1598. 
!!!YEC: Copyright 1994, David Huron
!!!YEN: United States of America
!!!SMA: 371 Bach Chorales, edited by Ludwig Erk, C.F. Peters
!!!PDT: 1850, 1865
**kern	**kern	**kern	**kern	**root	**harm	**kern
!bass	!tenor	!alto	!soprno	!	!	!
*Iorgan	*Iorgan	*Iorgan	*Iorgan	*Iorgan	*	*Iorgan
*k[f#]	*k[f#]	*k[f#]	*k[f#]	*k[f#]	*k[f#]	*k[f#]
*G:	*G:	*G:	*G:	*G:	*G:	*G:
*M4/4	*M4/4	*M4/4	*M4/4	*M4/4	*M4/4	*M4/4
*met(C)	*met(C)	*met(C)	*met(C)	*met(C)	*met(C)	*met(C)
*MM60	*MM60	*MM60	*MM60	*MM60	*MM60	*MM60
*>[A,A,B]	*>[A,A,B]	*>[A,A,B]	*>[A,A,B]	*>[A,A,B]	*>[A,A,B]	*>[A,A,B]
*>A	*>A	*>A	*>A	*>A	*>A	*>A
8G	4B	4d	4g	4GG	I	4G 4b 4dd
8F#	.	.	.	.	.	.
=1	=1	=1	=1	=1	=1	=1
8E	4B	4e	4g	4EE	vi	4E 4g 4b
8D	.	.	.	.	.	.
8C	4c	4.e	4g	4CC	IV	4C 4e 4g
8BB	.	.	.	.	.	.
4AA	4c	.	4a	4AA	ii	4A 4cc 4ee
.	.	8f#	.	.	.	.
4GG	8d	4g	4b	4GG	V7/IV	4G 4b 4dd 4ff
.	8fn	.	.	.	.	.
=2	=2	=2	=2	=2	=2	=2
4C	4e	4.g	8cc	4CC	IV	4C 4e 4g
.	.	.	8b	.	.	.
4D	8A	.	4a	4DD	V	4D 4f# 4a
.	16d	8f#	.	.	.	.
.	16c	.	.	.	.	.
2GG;	2B;	2d;	2g;	2GG;	I;	2G; 2b; 2dd;
=3	=3	=3	=3	=3	=3	=3
4D	4d	4f#	4a	4DD	V	4D 4f# 4a
8AA	8c	8e	4a	8AA	ii	8A 8cc 8ee
8BB	[8B	8d	.	8BB	vii7/IV	8B 8dd 8ff# 8aa
4C	8B]	[4e	4e	4AA	ii	4A 4cc 4ee
.	[8A	.	.	.	.	.
4D	8A]	8e]	4f#	4DD	V	4D 4f# 4a
.	16B	16d	.	.	.	.
.	16A	16c	.	.	.	.
=4	=4	=4	=4	=4	=4	=4
4E	4.G	8B	4g	4EE	vi	4E 4g 4b
.	.	8G	.	.	.	.
4D	.	4d	4a	4DD	V	4D 4f# 4a
.	8F#	.	.	.	.	.
4GG;	4B;	4d;	4g;	4GG;	I;	4G; 4b; 4dd;
=:|!	=:|!	=:|!	=:|!	=:|!	=:|!	=:|!
*>B	*>B	*>B	*>B	*>B	*>B	*>B
4G	4B	4d	4g	4GG	I	4G 4b 4dd
=5	=5	=5	=5	=5	=5	=5
4F#	8A	4d	4dd	4DD	V7b	4d 4F# 4a 4cc
.	8c	.	.	.	.	.
8G	8B	8g	4dd	8GG	I	8G 8b 8dd
8F#	8A	8a	.	8DD	Vb	8d 8F# 8a
4E	4G	8b	4ee	4EE	vi	4E 4g 4b
.	.	8cc	.	.	.	.
4F#	4d	8b	8dd	4DD	Vb	4d 4F# 4a
.	.	8a	8cc	.	.	.
=6	=6	=6	=6	=6	=6	=6
8G	4d	4g	4b	4GG	I	4G 4b 4dd
8F#	.	.	.	.	.	.
4E	4e	4g	4cc#	4CC#	viib/V	4c# 4E 4g#
4D;	4f#;	4a;	4dd;	4DD;	V;	4D; 4f#; 4a;
4F#	8d	4a	4dd	4DD	Vb	4d 4F# 4a
.	8c	.	.	.	.	.
=7	=7	=7	=7	=7	=7	=7
8G	8B	4g	4dd	4GG	I	4G 4b 4dd
8A	8c	.	.	.	.	.
8B	8d	4g	4dd	4GG	Ib	4g 4B 4dd
8G	8B	.	.	.	.	.
4c	8c	4g	4ee	4CC	IV	4C 4e 4g
.	8B	.	.	.	.	.
4F#	8A	[4a	8dd	4DD	Vb	4d 4F# 4a
.	8d	.	8cc	.	.	.
=8	=8	=8	=8	=8	=8	=8
4G	4d	8a]	4b	4GG	I	4G 4b 4dd
.	.	4g	.	.	.	.
4D	8.d	.	4a	4DD	V	4D 4f# 4a
.	.	8f#	.	.	.	.
.	16c	.	.	.	.	.
2GG;	2B;	2d;	2g;	2GG;	I;	2G; 2b; 2dd;
=9	=9	=9	=9	=9	=9	=9
8C	4G	4c	4e	4CC	IV	4C 4e 4g
8BB	.	.	.	.	.	.
4AA	4A	4c	4f#	4FF#	viib	4f# 4A 4cc#
4BB	8D	8d	4g	4GG	Ib	4g 4B 4dd
.	4G	4B	.	.	.	.
4C#	.	.	4e	8CC#	vii7/V	8C# 8e 8g# 8b
.	16F#	8A	.	8AA	Vb/V	8a 8C# 8ee
.	16E	.	.	.	.	.
=10	=10	=10	=10	=10	=10	=10
4D	4F#	8A	4d	4DD	V	4D 4f# 4a
.	.	8B	.	.	.	.
4AA	8E	4A	4c#	4AA	V7/V	4A 4cc# 4ee 4gg
.	16F#	.	.	.	.	.
.	16G	.	.	.	.	.
2DD;	2F#;	2A;	2d;	2DD;	V;	2D; 2f#; 2a;
=11	=11	=11	=11	=11	=11	=11
8E	4B	4e	4g	4EE	vi	4E 4g 4b
8D	.	.	.	.	.	.
8C	4c	4e	4g	4CC	IV	4C 4e 4g
8BB	.	.	.	.	.	.
4AA	4c	8e	4a	8AA	ii	8A 8cc 8ee
.	.	8f#	.	8FF#	viib	8f# 8A 8cc#
4GG	8d	4g	4b	4GG	V7/IV	4G 4b 4dd 4ff
.	8fn	.	.	.	.	.
=12	=12	=12	=12	=12	=12	=12
4C	4e	4.g	8cc	4CC	IV	4C 4e 4g
.	.	.	8b	.	.	.
4D	8A	.	4a	4DD	V	4D 4f# 4a
.	16d	8f#	.	.	.	.
.	16c	.	.	.	.	.
2GG;	2B;	2d;	2g;	2GG;	I;	2G; 2b; 2dd;
=13	=13	=13	=13	=13	=13	=13
8DD	8F#	4d	4a	4DD	V	4D 4f# 4a
8EE	8G	.	.	.	.	.
8FF#	4A	4d	4a	4DD	Vb	4d 4F# 4a
8GG	.	.	.	.	.	.
8AA	4A	4c#	4e	4AA	V/V	4A 4cc# 4ee
8GG	.	.	.	.	.	.
4FF#	4A	4d	4f#	4DD	Vb	4d 4F# 4a
=14	=14	=14	=14	=14	=14	=14
4EE	4B	4d	8g	4EE	vi7b	4e 4G 4b 4dd
.	.	.	8f#	.	.	.
4AA	8E	4c#	4e	4AA	V/V	4A 4cc# 4ee
.	16A	.	.	.	.	.
.	16G	.	.	.	.	.
4D;	4F#;	4A;	4d;	4DD;	V;	4D; 4f#; 4a;
4BB	4G	4d	4fn	4GG	V7b/IV	4g 4B 4dd 4ff
=15	=15	=15	=15	=15	=15	=15
4.C	4G	4c	4e	4CC	IV	4C 4e 4g
.	4E	4G	4c	4CC	IV	4C 4e 4g
8BB	.	.	.	.	.	.
4AA	4A	4c	4e	4AA	ii	4A 4cc 4ee
8D	4A	4d	4f#y	4DD	V	4D 4f# 4a
8C	.	.	.	.	.	.
=16	=16	=16	=16	=16	=16	=16
8BB	4G	4.d	4g	4GG	Ib	4g 4B 4dd
8GG	.	.	.	.	.	.
4D	4F#	.	4a	4DD	V	4D 4f# 4a
.	.	8c	.	.	.	.
4GG;	4G;	4B;	4g;	4GG;	I;	4G; 4b; 4dd;
==	==	==	==	==	==	==
*-	*-	*-	*-	*-	*-	*-
!!!YOR: Ludwig Erk, Peters Editions of 1850, 1865; revised in light of
!!!YOR: Friedrich Smend, Peters Edition of 1932 & Albert Riemenschneider, 1941.
!!!RDT: 1987 September
!!!YER: 1995 March 1
